COLOR/action 16/16/align-vertical-center.svg

<svg viewBox="0 0 24 24" xmlns="http://www.w3.org/2000/svg"><g transform="matrix(0 -1 -1 0 24 24)"><path d="m11.5 4v2h1v-2zm0 5v6h1v-6zm0 9v2h1v-2z" fill="#e95420"/><g fill="#c43ac4" transform="matrix(0 1 -1 0 1.728814 -12.105085)"><path d="m17.105085-13.271186v6h4 1v-1-4-1h-1-3.2z" stroke-width=".894427"/><path d="m26.105085-16.271186v12h4 1v-12h-1-3.2z" stroke-width="1.264911"/><g stroke-width=".894427" transform="matrix(-1 0 0 1 36.105085 -22.271186)"><path d="m4 12v.5h1v-.5zm6 0v.5h4v-.5zm9 0v.5h1v-.5zm-5 2.5v.5h1 4v-.5h-4zm-9 3v.5h1 4v-.5h-4z" fill="#000" opacity=".2"/><path d="m5 6v.5h1 3.1992188.8007812v-.5h-.8007812-3.1992188zm9 3v.5h1 3.199219.800781v-.5h-.800781-3.199219zm-10 2.5v.5h1v-.5zm6 0v.5h4v-.5zm9 0v.5h1v-.5z" fill="#fff" opacity=".3"/></g></g></g></svg>

<?xml version="1.0" encoding="UTF-8" standalone="no"?>
<svg
   xmlns:dc="http://purl.org/dc/elements/1.1/"
   xmlns:cc="http://creativecommons.org/ns#"
   xmlns:rdf="http://www.w3.org/1999/02/22-rdf-syntax-ns#"
   xmlns:svg="http://www.w3.org/2000/svg"
   xmlns="http://www.w3.org/2000/svg"
   xmlns:sodipodi="http://sodipodi.sourceforge.net/DTD/sodipodi-0.dtd"
   xmlns:inkscape="http://www.inkscape.org/namespaces/inkscape"
   viewBox="0 0 24 24"
   version="1.1"
   id="svg12"
   sodipodi:docname="align-vertical-center.svg"
   inkscape:version="0.92.4 (5da689c313, 2019-01-14)">
  <metadata
     id="metadata18">
    <rdf:RDF>
      <cc:Work
         rdf:about="">
        <dc:format>image/svg+xml</dc:format>
        <dc:type
           rdf:resource="http://purl.org/dc/dcmitype/StillImage" />
      </cc:Work>
    </rdf:RDF>
  </metadata>
  <defs
     id="defs16" />
  <sodipodi:namedview
     pagecolor="#ffffff"
     bordercolor="#666666"
     borderopacity="1"
     objecttolerance="10"
     gridtolerance="10"
     guidetolerance="10"
     inkscape:pageopacity="0"
     inkscape:pageshadow="2"
     inkscape:window-width="1920"
     inkscape:window-height="1016"
     id="namedview14"
     showgrid="false"
     inkscape:zoom="9.8333333"
     inkscape:cx="0.45762712"
     inkscape:cy="12"
     inkscape:window-x="0"
     inkscape:window-y="27"
     inkscape:window-maximized="1"
     inkscape:current-layer="g8" />
  <g
     transform="matrix(0 -1 -1 0 24 24)"
     id="g10">
    <path
       d="m11.5 4v2h1v-2zm0 5v6h1v-6zm0 9v2h1v-2z"
       fill="#e95420"
       id="path2" />
    <g
       fill="#c43ac4"
       transform="matrix(0 1 -1 0 1.728814 -12.105085)"
       id="g8">
      <path
         d="m 17.105085,-13.271186 v 6 h 4 1 v -1 -4 -1 h -1 -3.2 z"
         id="path4"
         inkscape:connector-curvature="0"
         style="stroke-width:0.894427" />
      <path
         d="m 26.105085,-16.271186 v 12 h 4 1 v -12 h -1 -3.2 z"
         id="path6"
         inkscape:connector-curvature="0"
         style="stroke-width:1.26491106" />
      <path
         style="stroke-width:0.894427;fill:#000000;fill-opacity:1;opacity:0.2"
         d="M 4 12 L 4 12.5 L 5 12.5 L 5 12 L 4 12 z M 10 12 L 10 12.5 L 14 12.5 L 14 12 L 10 12 z M 19 12 L 19 12.5 L 20 12.5 L 20 12 L 19 12 z M 14 14.5 L 14 15 L 15 15 L 19 15 L 19 14.5 L 15 14.5 L 14 14.5 z M 5 17.5 L 5 18 L 6 18 L 10 18 L 10 17.5 L 6 17.5 L 5 17.5 z "
         transform="matrix(-1,0,0,1,36.105085,-22.271186)"
         id="path830" />
      <path
         style="stroke-width:0.894427;fill:#ffffff;fill-opacity:1;opacity:0.3"
         d="M 5 6 L 5 6.5 L 6 6.5 L 9.1992188 6.5 L 10 6.5 L 10 6 L 9.1992188 6 L 6 6 L 5 6 z M 14 9 L 14 9.5 L 15 9.5 L 18.199219 9.5 L 19 9.5 L 19 9 L 18.199219 9 L 15 9 L 14 9 z M 4 11.5 L 4 12 L 5 12 L 5 11.5 L 4 11.5 z M 10 11.5 L 10 12 L 14 12 L 14 11.5 L 10 11.5 z M 19 11.5 L 19 12 L 20 12 L 20 11.5 L 19 11.5 z "
         transform="matrix(-1,0,0,1,36.105085,-22.271186)"
         id="path837" />
    </g>
  </g>
</svg>
